X: 13113
T: Fireman's
R: reel
M: 4/4
K: Amajor
AcBc AFEF|Acea f2fg|agfe fecA|BcBA F2E2|
AcBc AFEF|Acea f2 (3efg|agfe fecA|B2A2 A4:|
|:eaga fece|eaga f2fg|agfe fecA|BcBA F2E2|
AcBc AFEF|Acea f2 (3efg|agfe fecA|B2A2A2c2:|

